icons/night/video.svg

<svg width="16" height="16" viewBox="0 0 16 16" fill="none" xmlns="http://www.w3.org/2000/svg">
<path fill-rule="evenodd" clip-rule="evenodd" d="M12.608 4.157C11.812 3.20254 10.7393 2.51874 9.538 2.2L9.781 7.188L12.608 4.157ZM5.082 2.757C6.13875 2.16673 7.34991 1.91146 8.555 2.025L8.735 6.065L5.082 2.757ZM2.258 6.254C2.60684 5.1085 3.29008 4.09339 4.22 3.339L7.186 5.987L2.256 6.255L2.258 6.254ZM2.672 10.761C2.11092 9.68199 1.89253 8.45744 2.046 7.251L5.948 7.07L2.672 10.761ZM6.17 13.715C4.97942 13.3325 3.93774 12.5883 3.19 11.586L5.91 8.657L6.17 13.715ZM10.867 13.271C9.74588 13.8827 8.45823 14.1189 7.193 13.945L6.993 9.857L10.867 13.271ZM13.794 9.564C13.4574 10.8079 12.7295 11.9106 11.718 12.709L8.542 9.897L13.794 9.564ZM13.157 4.931C13.819 6.04028 14.1036 7.33431 13.968 8.619L9.665 8.812L13.157 4.931Z" fill="#BB9AF7"/>
</svg>

<svg xmlns="http://www.w3.org/2000/svg" fill="none" viewBox="0 0 16 16"><path
    fill="#bb9af7"
    fill-rule="evenodd"
    d="M12.608 4.157A6.002 6.002 0 0 0 9.538 2.2l.243 4.988 2.827-3.03Zm-7.526-1.4a5.973 5.973 0 0 1 3.473-.732l.18 4.04-3.653-3.309ZM2.258 6.254A6.007 6.007 0 0 1 4.22 3.339l2.966 2.648-4.93.268Zm.414 4.507a5.974 5.974 0 0 1-.626-3.51l3.902-.181-3.276 3.691Zm3.498 2.954a6.012 6.012 0 0 1-2.98-2.129l2.72-2.929.26 5.058Zm4.697-.444a5.973 5.973 0 0 1-3.674.674l-.2-4.088 3.874 3.414Zm2.927-3.707a6.005 6.005 0 0 1-2.076 3.145L8.542 9.897l5.252-.332Zm-.637-4.633a5.973 5.973 0 0 1 .811 3.688l-4.303.193 3.492-3.881Z"
    clip-rule="evenodd"
  /></svg>
